!!!SOCIAL_FUNCTION:	songs concerning the sacred stones
!!!PDT:	1918

Specific Region: Dakotas, Minnesota, Montana, Nebraska
!!!REG: Dakotas and Montana
!!!LING_GROUP: Siouan
!!!LANG: Tone
!!!OTL@ENG: A Voice I Sent
!!!ONM: No. 78
**kern
*Imale
*clefF4
*k[b-e-]
*M3/4
*MM92
16f
=1
(12f
12d)
12d
4d
(12d
12c
12c)
=2
8.B-
16B-
[4B-
8.B-]
16f
=3
(12f
12d)
12d
4d
(12d
12c
12c)
=4
8.B-
16B-
[4B-
8B-]
24c
24c
24c
=5||
*M2/4
4B-
4B-
=6
(16c
8.B-)
(8..B-
32G)
=7||
*M3/4
8F
8E
8.F
16E
4F
=8||
*M2/4
4F
8.F
16D
=9||
*M3/4
4D
[4D
8.D]
16A
=10||
8.G
16G
4B-
4B-
=11
16c
8.B-
[4B-
8.B-]
16G
=12
8.c
16c
4B-
4B-
=13||
*M2/4
4c
4c
=14||
*M3/4
8.B-
16B-
4B-
4B-
=15||
*M2/4
4B-
8.B-
16G
=16
4F
4F
==
*-
!!!CNT: Native American -- Sioux
!!!MRD: 1911/07//-1914///
!!!OCL: Frances Densmore
!!!YOR1: Teton Sioux Music, Bulletin 61,
!!!YOR2: Bureau of American Ethnology, Smithsonian Institution
!!!PPR: Government Printing Office
!!!PPP: Washington, D.C.
!!!PDT: 1918///
!!!ENC: Craig Stuart Sapp
!!!END: 2002/03/25/
!!!EEV: 2002/03/31/
!!!AGN: Song of Personal Dreams/Song Concerning the Sacred Stones
!!!MPN@@SIO: Mato'wangbli'
!!!MPN@ENG: Bear Eagle
!!!TXO: Teton Sioux
!!!MLC: Standing Rock Reservation, South Dakota, United States of America
!!!ARL: 45.9/-100.7#
!!!catalog: Catalogue No. 633
!!!PPG: 237
!!!EFL: 78/245
!!!VTS: 566632421
